X: 1
T: Siobhan O'Donnell's variation
T: the Reel of Sceach\'og
C: John Brady
R: reel
S: Fiddle Hell Online 2021-2020-12-19 handout
Z: 2021 John Chambers <jc:trillian.mit.edu>
M: 4/4
L: 1/8
K: A
|: "A"A2ce   a2ba    | "D"(~f3a) (ufe)ce | e(vf{a}fe) cBA(uF | "Bm"EF)AB "E"cBAF |
|  "A"(~E3F) (uAB)ce  | ("D"Jf2a)(f {a}f)ece | efec (3dc(B c)(A | "E"BA)GB "A"cAec :|
|: "A"A2(ce) fece  | "D"fAAf  vAA"A"eA | "D"fAAf AA"A"eA | "D"aef(ua eA)ce |
| "F#m"e(f{a}fe) cBAF | "C#m"(~E3F) (uAB)ce | "D"(Jf2e)c (3vdc(B c)(A | "E"BA)GB "A"cAec :|
